!!!!SEGMENT: Sil2018-Attendite_populi_de_longe.krn
!!!id: Sil2018
!!!AGN: Motet
!!!voices: 4
!!!COM: Andreas de Silva
!!!OTL: Attendite populi de longe
**kern	**kern	**kern	**kern
*part4	*part3	*part2	*part1
*staff4	*staff3	*staff2	*staff1
*I"Bassus	*I"Tenor	*I"Altus	*I"Superius
*I'B	*I'T	*I'A	*I'S
*clefF4	*clefGv2	*clefGv2	*clefG2
*k[]	*k[]	*k[]	*k[]
*C:	*C:	*C:	*C:
*M2/1	*M2/1	*M2/1	*M2/1
*met(C|)	*met(C|)	*met(C|)	*met(C|)
!!section: Prima pars: Attendite populi de longe
!!!OMD: Prima pars: Attendite populi de longe
0r	0r	0r	0d
=1	=1	=1	=1
0r	0r	0A	1.a
.	.	.	2a
=2	=2	=2	=2
0r	0r	1.e	1g
.	.	.	[1b
.	.	2e	.
=3	=3	=3	=3
0r	0D	1d	2b]
.	.	.	2a
.	.	[1f	[1a
=4	=4	=4	=4
0AA	1.A	2f]	2a]
.	.	2e	8aL
.	.	.	8g
.	.	.	8a
.	.	.	8bJ
.	.	[1e	1cc
.	2A	.	.
=5	=5	=5	=5
1.E	2.G	2e]	1.b
.	.	8eL	.
.	.	8d	.
.	4A	8e	.
.	.	8fJ	.
.	2B	1g	.
2E	2c	.	4a
.	.	.	4g
=6	=6	=6	=6
1D	1d	1.f	2b
.	.	.	1a
[1F	2c	.	.
.	[2A	4e	4g
.	.	4d	4f
=7	=7	=7	=7
2F]	4A]	2.c	1a
.	4B	.	.
2F	2.c	.	.
.	.	4d	.
2.E	.	2e	2.g
.	4B	.	.
.	2G	[2E	.
4D	.	.	4f
=8	=8	=8	=8
2C	2.A	2E]	4e
.	.	.	4d
4BB	.	1A	2.e
4AA	4G	.	.
1BB-X	2F	.	.
.	.	.	4d
.	4E	2G	[2d
.	4D	.	.
=9	=9	=9	=9
1AA	1E	0A	2d]
.	.	.	2c#i
[1D	[1D	.	[1d
=10	=10	=10	=10
0D_	1D]	2r	1d]
.	.	2d	.
.	1r	[1d	2r
.	.	.	2a
=11	=11	=11	=11
1D]	0r	2d]	1a
.	.	2d	.
1r	.	2c	2a
.	.	2A	2a
=12	=12	=12	=12
1r	0r	2B	2g
.	.	2c	2e
1D	.	[1d	2.f
.	.	.	4g
=13	=13	=13	=13
1.D	1A	2d]	0a
.	.	4D	.
.	.	4E	.
.	[1A	4F	.
.	.	4G	.
2D	.	4A	.
.	.	4B	.
=14	=14	=14	=14
2C	2A]	1c	1e
2AA	2A	.	.
2BB	2G	2r	1r
2C	2E	2A	.
=15	=15	=15	=15
1D	2.F	1.A	1r
.	4G	.	.
1AA	1A	.	1e
.	.	2A	.
=16	=16	=16	=16
0r	1E	2G	1.e
.	.	2E	.
.	1E	2.G	.
.	.	.	2e
.	.	4A	.
=17	=17	=17	=17
2r	2r	2B	2d
2A	2c	1c	2.a
[1A	[1c	.	.
.	.	.	4b
.	.	4B	[2cc
.	.	4A	.
=18	=18	=18	=18
2A]	2c]	2e	2cc]
2A	2c	2f	4b
.	.	.	4a
1G	2d	[1g	[1b
.	[2e	.	.
=19	=19	=19	=19
2E	4e]	2g]	2b]
.	4d	.	.
1F	4c	1a	2a
.	4B	.	.
.	2A	.	2r
2G	[2d	4g	2d
.	.	4f	.
=20	=20	=20	=20
1A	2d]	1e	1.a
.	2c#i	.	.
1D	1d	2d	.
.	.	2A	2a
=21	=21	=21	=21
1r	0r	1.e	1.g
2r	.	.	.
2AA	.	2e	2e
=22	=22	=22	=22
1.D	2r	4d	2.f
.	.	4c	.
.	2D	4d	.
.	.	4e	4g
.	[1A	1f	1a
2D	.	.	.
=23	=23	=23	=23
0D	2A]	2r	2d
.	2A	2f	2a
.	1A	2f	2a
.	.	2d	2f
=24	=24	=24	=24
2r	0r	2e	2g
2D	.	1f	1a
2F	.	.	.
2G	.	4e	4g
.	.	4d	4f
=25	=25	=25	=25
1A	1r	4c	2e
.	.	4d	.
.	.	4e	2a
.	.	4c	.
1D	2r	2d	2b-X
.	2D	[2f	[2a
=26	=26	=26	=26
0r	2F	2f]	2a]
.	2G	4e	4g
.	.	4d	4f
.	1A	1c	1e
=27	=27	=27	=27
2r	2D	2d	1d
2D	1d	2f	.
2.F	.	2f	[1a
.	4c	2f	.
4G	4B	.	.
=28	=28	=28	=28
1A	2.c	2e	1a]
.	.	4d	.
.	4d	4c	.
2E	1e	2B	2g
[2AA	.	2A	[2cc
=29	=29	=29	=29
2AA]	1A	[0e	2cc]
2AA	.	.	4b
.	.	.	4a
2E	2G	.	2b
2AA	[2c	.	2a
=30	=30	=30	=30
1A	2c]	0e_	1a
.	4B	.	.
.	4A	.	.
2G	2B	.	1r
[2c	2A	.	.
=31	=31	=31	=31
2c]	2r	0e]	0r
4B	2A	.	.
4A	.	.	.
2B	2G	.	.
[2A	[2c	.	.
=32	=32	=32	=32
2A]	2c]	2.e	1a
4G	4B	.	.
4F	4A	4d	.
2E	2B	2e	2g
2F	[2A	4c	[2cc
.	.	4d	.
=33	=33	=33	=33
4C	2A]	4e	2cc]
4D	.	4f	.
4E	1e	1g	4b
4F	.	.	4a
2G	.	.	2b
2A	4d	2f	[2a
.	4c	.	.
=34	=34	=34	=34
1E	1B	1e	2a]
.	.	.	2g#i
[1AA	[1A	[1c	[1a
=35	=35	=35	=35
1AA]	1A]	1c]	1a]
[1F	1r	2.c	[1a
.	.	4B	.
=36	=36	=36	=36
2F]	1.c	2A	2a]
2E	.	2e	2g
[1E	.	[1e	[1g
.	2B	.	.
=37	=37	=37	=37
1E]	1B	1e]	1g]
[1A	1r	2.e	[1cc
.	.	4d	.
=38	=38	=38	=38
2A]	1.e	2c	2cc]
2G	.	2g	2b
[1G	.	[1g	[1b
.	2d	.	.
=39	=39	=39	=39
1G]	1d	1g]	1b]
1C	1c	1e	2g
.	.	.	[2a
=40	=40	=40	=40
1D	1A	1f	4a]
.	.	.	4g
.	.	.	1f
[1BB-i	[1B-X	[1d	.
.	.	.	4e
.	.	.	4d
=41	=41	=41	=41
1BB-]	1B-]	1d]	1f
[1C	1G	[1c	[1e
=42	=42	=42	=42
0C_	2r	0c_	0e_
.	2G	.	.
.	2A	.	.
.	[2c	.	.
=43	=43	=43	=43
1C]	4c]	1c]	1e]
.	4B	.	.
.	4c	.	.
.	4A	.	.
1r	2B	1r	2r
.	[2c	.	2g
=44	=44	=44	=44
0r	4c]	1r	2a
.	4B	.	.
.	4A	.	2.cc
.	4G	.	.
.	1A	1c	.
.	.	.	4b
.	.	.	4cc
.	.	.	4a
=45	=45	=45	=45
0r	2G	2d	2b
.	2F	1f	1a
.	2D	.	.
.	2d	4e	4g
.	.	4d	4f
=46	=46	=46	=46
1C	2e	2c	2g
.	2e	2c	2g
2D	2.f	[1A	1f
[2F	.	.	.
.	8eL	.	.
.	8dJ	.	.
=47	=47	=47	=47
4F]	2c	1A]	0r
4E	.	.	.
4F	1d	.	.
4D	.	.	.
2E	.	2r	.
2E	2c#i	2G	.
=48	=48	=48	=48
1D	1d	1.d	2r
.	.	.	2d
1r	2r	.	[1a
.	2C	2c	.
=49	=49	=49	=49
2r	1.G	1B	2a]
2GG	.	.	2g
[1D	.	1A	1f
.	2F	.	.
=50	=50	=50	=50
2D]	1E	2r	1e
2C	.	2E	.
1BB-X	1D	2F	2d
.	.	2G	[2dd
=51	=51	=51	=51
[0AAl	[0El	1A	2dd]
.	.	.	4cc#i
.	.	.	4b
.	.	[1Al	[1cc#Xl
=52	=52	=52	=52
00AA]	00E]	00A]	00cc#]
=53||	=53||	=53||	=53||
*M2/1	*M2/1	*M2/1	*M2/1
*met(C|)	*met(C|)	*met(C|)	*met(C|)
!!section: Secunda pars: Et in aventis eius
!!!OMD: Secunda pars: Et in aventis eius
0A	0c	0e	0a
=54	=54	=54	=54
1F	1c	1f	1a
1D	1d	1f	1a
=55	=55	=55	=55
1.F	1c	1.f	1.a
.	1c	.	.
2C	.	2e	2g
=56	=56	=56	=56
1D	1A	1d	1f
1AA	1A	1c	1e
=57	=57	=57	=57
0E	0B	0e	0g#X
=58	=58	=58	=58
1F	1A	1c	1.a
1D	1d	1f	.
.	.	.	2a
=59	=59	=59	=59
0E	0B	2e	0g#X
.	.	2e	.
.	.	2e	.
.	.	2e	.
=60	=60	=60	=60
2r	1r	2d	0r
2A	.	1c	.
2A	2r	.	.
2A	2e	4B	.
.	.	4A	.
=61	=61	=61	=61
1G	2e	1B	1r
.	2e	.	.
2.F	2d	1A	2r
.	2c	.	2a
4E	.	.	.
=62	=62	=62	=62
2D	2d	2r	2a
2AA	2.c	2e	2a
1C	.	2e	1g
.	4B	.	.
.	2c	2e	.
=63	=63	=63	=63
2D	1A	1.d	0f
2D	.	.	.
2D	2r	.	.
2D	2A	8dL	.
.	.	8c	.
.	.	8A	.
.	.	8BJ	.
=64	=64	=64	=64
2C	2A	1c	2r
2AA	2A	.	2e
1C	2G	2r	2e
.	2E	2A	2e
=65	=65	=65	=65
1D	1F	2A	1d
.	.	2A	.
2r	[1E	[1G	2B
2E	.	.	[2e
=66	=66	=66	=66
2E	1E]	2G]	4e]
.	.	.	4f
2E	.	8GL	4g
.	.	8A	.
.	.	8B	4e
.	.	8cJ	.
2.D	2r	1d	2.f
.	2A	.	.
4C	.	.	8eL
.	.	.	8dJ
=67	=67	=67	=67
4AA	2A	2r	4c
4BB	.	.	4d
4C	2A	2e	4e
4D	.	.	4f
2E	1G	2e	4g
.	.	.	4f
2C	.	2e	4g
.	.	.	4e
=68	=68	=68	=68
2D	1F	1.d	2f
2D	.	.	2.a
2D	2r	.	.
.	.	.	4g
2D	2A	8dL	[2f
.	.	8c	.
.	.	8A	.
.	.	8BJ	.
=69	=69	=69	=69
2C	2A	1c	4f]
.	.	.	8eL
.	.	.	8dJ
2AA	2A	.	2.e
1BB-X	2G	2B-X	.
.	.	.	4d
.	2D	2G	[2d
=70	=70	=70	=70
1AA	1E	1A	2d]
.	.	.	2c#i
2r	1D	[1A	[1d
[2A	.	.	.
=71	=71	=71	=71
2A]	2r	1A]	1d]
2F	2A	.	.
2G	2B	1e	2r
[2A	[2c	.	[2a
=72	=72	=72	=72
2A]	4c]	2c	2a]
.	4A	.	.
2D	2A	2d	2f
1r	2r	2e	2g
.	[2A	2c	[2a
=73	=73	=73	=73
1D	2A]	2.f	2a]
.	2F	.	2d
.	.	4e	.
2BB	2G	2d	2r
2C	[2A	4c	[2a
.	.	4B	.
=74	=74	=74	=74
1D	2A]	1A	2a]
.	2d	.	2f
2E	2B	1e	1g
2C	[2c	.	.
=75	=75	=75	=75
2F	2c]	2c	1a
2F	4B	2d	.
.	4A	.	.
1E	2c	2.e	2g
.	2B	.	2g
.	.	8dL	.
.	.	8cJ	.
=76	=76	=76	=76
2r	2.G	1B	2.e
1E	.	.	.
.	4A	.	4f
.	4B	2e	2g
.	4G	.	.
2C	2c	2e	[2a
=77	=77	=77	=77
2D	1B	2f	2a]
2E	.	2e	2g#i
2AA	2A	2c	2a
2AA	2A	2c	2e
=78	=78	=78	=78
2D	2A	2d	2f
2GG	2B	2d	2g
[1AA	[1A	[1c#X	[1e
=79	=79	=79	=79
0AA]	0A]	0c#]	0e]
=80	=80	=80	=80
*M3/1	*M3/1	*M3/1	*M3/1
*met(O3)	*met(O3)	*met(O3)	*met(O3)
1%3r	1%3r	0d	0f
.	.	1B	1g
=81	=81	=81	=81
1%3r	1%3r	1c	1e
.	.	1d	1f
.	.	1G	1g
=82	=82	=82	=82
0D	0F	0F	0a
1BB	1G	1r	1r
=83	=83	=83	=83
1C	1E	1r	1a
1D	1F	1d	1a
1BB	1G	1d	1b
=84	=84	=84	=84
2AA	0A	2c	1.cc
2BB	.	2d	.
2C	.	2e	.
2D	.	2f	4b
.	.	.	4a
1E	1r	1e	1g
=85	=85	=85	=85
1.F	1.A	1c	1a
.	.	1f	1.cc
2G	2B	.	.
1A	1c	1e	.
.	.	.	2b
=86	=86	=86	=86
1D	1d	1f	0a
0E	0B	0e	.
.	.	.	1g#i
=87	=87	=87	=87
*M2/1	*M2/1	*M2/1	*M2/1
*met(C|)	*met(C|)	*met(C|)	*met(C|)
[0AA	[0A	0c	0a
=88	=88	=88	=88
0AA]	0A]	1.e	1r
.	.	.	[1a
.	.	2e	.
=89	=89	=89	=89
0r	0r	2d	2a]
.	.	2c	2a
.	.	2B	2g
.	.	[2A	2f
=90	=90	=90	=90
1.A	1r	4A]	1e
.	.	4B	.
.	.	1c	.
.	1e	.	2r
2A	.	4B	[2e
.	.	4A	.
=91	=91	=91	=91
2G	2e	2B	2e]
2F	2d	2A	2f
1E	2c	1e	1g
.	2B	.	.
=92	=92	=92	=92
2A	2c	2r	1r
2G	2B	1e	.
1A	1A	.	[1a
.	.	2e	.
=93	=93	=93	=93
1D	2r	2.d	2a]
.	1d	.	2a
.	.	4c	.
1r	.	1B	2g
.	2d	.	2f
=94	=94	=94	=94
1r	2.c	2r	1e
.	.	1A	.
.	4B	.	.
1D	2A	.	2.f
.	[2A	[2F	.
.	.	.	4e
=95	=95	=95	=95
2D	2A]	2F]	4f
.	.	.	4d
2C	2A	2E	2e
2BB	2G	2D	1r
2AA	2F	2A	.
=96	=96	=96	=96
1.D	2D	2r	1.a
.	1d	1f	.
2D	2d	2f	2a
=97	=97	=97	=97
2E	1B	2e	2g
2r	.	2d	2f
1A	2r	2c	2e
.	[2c	[2e	[2c
=98	=98	=98	=98
2A	2c]	2e]	4c]
.	.	.	4d
2A	4B	4d	4e
.	4A	4c	4f
2G	2B	2d	4g
.	.	.	4e
2F	[2c	2A	2a
=99	=99	=99	=99
2E	4c]	2e	2g
.	4B	.	.
2F	2A	2c	1f
1C	1G	1c	.
.	.	.	2e
=100	=100	=100	=100
1r	0F	2r	1f
.	.	2c	.
1D	.	[1f	2r
.	.	.	2f
=101	=101	=101	=101
1.F	2r	2f]	1.a
.	2A	2f	.
.	[1c	4c	.
.	.	4B	.
2C	.	4c	2g
.	.	4d	.
=102	=102	=102	=102
1C	2c]	1e	2g
.	2c	.	4f
.	.	.	4e
[1D	[1A	[1d	1f
=103	=103	=103	=103
1D]	0A]	2d]	2r
.	.	2d	1a
1r	.	2.c	.
.	.	.	2a
.	.	8BL	.
.	.	8AJ	.
=104	=104	=104	=104
0r	0r	4c	1g
.	.	4d	.
.	.	2.e	.
.	.	.	2g
.	.	4d	.
.	.	4c	2a
.	.	4B	.
=105	=105	=105	=105
0r	2r	2A	2f
.	1A	1d	4e
.	.	.	4d
.	.	.	2.e
.	2A	2c	.
.	.	.	4f
=106	=106	=106	=106
0r	1G	2d	1g
.	.	2.e	.
.	2G	.	2r
.	.	4d	.
.	2A	[2c	[2a
=107	=107	=107	=107
0r	2F	4c]	2a]
.	.	4A	.
.	4E	1d	2a
.	4D	.	.
.	1E	.	2g
.	.	2c#i	2g
=108	=108	=108	=108
1r	0D	2d	0f
.	.	1d	.
2r	.	.	.
[2A	.	2d	.
=109	=109	=109	=109
2A]	2r	2c	0r
2A	1e	2c	.
1G	.	1B	.
.	2e	.	.
=110	=110	=110	=110
2G	2d	2r	0r
2A	2.c	1A	.
2F	.	.	.
.	4A	.	.
4E	[2d	2A	.
4D	.	.	.
=111	=111	=111	=111
1E	2d]	2G	1r
.	2c#i	2G	.
[1D	1d	2F	2r
.	.	[2D	[2d
=112	=112	=112	=112
1D]	2r	4D]	2d]
.	.	4C	.
.	1A	4D	2d
.	.	4E	.
1r	.	1F	4c
.	.	.	4B
.	2A	.	4c
.	.	.	4d
=113	=113	=113	=113
2r	2G	0C	4e
.	.	.	4f
1E	4E	.	1g
.	4F	.	.
.	4G	.	.
.	4A	.	.
2E	4B	.	4f
.	4c	.	4e
=114	=114	=114	=114
1D	2d	1r	1f
.	1A	.	.
4AA	.	2r	2e
4GG	.	.	.
4AA	2A	[2e	[2c
4BB	.	.	.
=115	=115	=115	=115
1C	1G	2e]	4c]
.	.	.	4B
.	.	2e	2c
2BB-X	2G	2d	4d
.	.	.	4B
2AA	2A	2c	[2e
=116	=116	=116	=116
1BB-i	2F	2B-X	4e]
.	.	.	4d
.	4E	2G	1d
.	4D	.	.
1AA	1E	1A	.
.	.	.	2c#i
=117	=117	=117	=117
2r	2D	2A	[0dl
2D	2A	2A	.
[1GG	[1B-X	1G	.
=118	=118	=118	=118
2GG]	2B-]	2G	0d_
2D	2A	2A	.
1D	2A	2F	.
.	4G	4E	.
.	4F	4D	.
=119	=119	=119	=119
0GG	0B-i	0G	0d_
=120	=120	=120	=120
00Dl	00Al	00Fl	00d]
==	==	==	==
*-	*-	*-	*-
!!!system-decoration: [*]
!!!RDF**kern: i = editorial accidental
!!!RDF**kern: l = terminal long
!!!ENC: Benjamin Ory
!!!END: 2024/3/9
!!!EED: Benjamin Ory
!!!EEV: 2024/03/09
!!!YEC: Copyright 2024 Benjamin Ory, All Rights Reserved
!!!ONB: Translated from MusicXML on 2024/03/09